; G-Code generated by Simplify3D(R) Version 4.1.2
; Jul 8, 2024 at 11:40:15 AM
; Settings Summary
;   processName,Process1
;   applyToModels,jesus
;   profileName,Sethi_S3 - V2(2) (modified)
;   profileVersion,2019-10-28 19:23:45
;   baseProfile,S3
;   printMaterial,ABS
;   printQuality,Layer 0,3mm
;   printExtruders,
;   extruderName,Primary Extruder
;   extruderToolheadNumber,0
;   extruderDiameter,0.4
;   extruderAutoWidth,1
;   extruderWidth,0.48
;   extrusionMultiplier,1
;   extruderUseRetract,1
;   extruderRetractionDistance,1.5
;   extruderExtraRestartDistance,0
;   extruderRetractionZLift,0.5
;   extruderRetractionSpeed,2400
;   extruderUseCoasting,0
;   extruderCoastingDistance,0.2
;   extruderUseWipe,0
;   extruderWipeDistance,5
;   primaryExtruder,0
;   layerHeight,0.3
;   topSolidLayers,5
;   bottomSolidLayers,5
;   perimeterOutlines,3
;   printPerimetersInsideOut,1
;   startPointOption,2
;   startPointOriginX,135
;   startPointOriginY,0
;   sequentialIslands,0
;   spiralVaseMode,0
;   firstLayerHeightPercentage,100
;   firstLayerWidthPercentage,100
;   firstLayerUnderspeed,0.6
;   useRaft,0
;   raftExtruder,0
;   raftTopLayers,3
;   raftBaseLayers,2
;   raftOffset,3
;   raftSeparationDistance,0.14
;   raftTopInfill,100
;   aboveRaftSpeedMultiplier,0.3
;   useSkirt,1
;   skirtExtruder,0
;   skirtLayers,1
;   skirtOutlines,1
;   skirtOffset,10
;   usePrimePillar,0
;   primePillarExtruder,999
;   primePillarWidth,12
;   primePillarLocation,7
;   primePillarSpeedMultiplier,1
;   useOozeShield,0
;   oozeShieldExtruder,999
;   oozeShieldOffset,2
;   oozeShieldOutlines,1
;   oozeShieldSidewallShape,1
;   oozeShieldSidewallAngle,30
;   oozeShieldSpeedMultiplier,1
;   infillExtruder,0
;   internalInfillPattern,Rectilinear
;   externalInfillPattern,Rectilinear
;   infillPercentage,100
;   outlineOverlapPercentage,20
;   infillExtrusionWidthPercentage,100
;   minInfillLength,3
;   infillLayerInterval,1
;   internalInfillAngles,45,-45
;   overlapInternalInfillAngles,0
;   externalInfillAngles,45,-45
;   generateSupport,0
;   supportExtruder,0
;   supportInfillPercentage,5
;   supportExtraInflation,0
;   supportBaseLayers,0
;   denseSupportExtruder,0
;   denseSupportLayers,5
;   denseSupportInfillPercentage,80
;   supportLayerInterval,1
;   supportHorizontalPartOffset,0.6
;   supportUpperSeparationLayers,1
;   supportLowerSeparationLayers,1
;   supportType,0
;   supportGridSpacing,1
;   maxOverhangAngle,50
;   supportAngles,45,-45
;   temperatureName,Heated Bed,Primary Extruder
;   temperatureNumber,0,0
;   temperatureSetpointCount,1,1
;   temperatureSetpointLayers,1,1
;   temperatureSetpointTemperatures,110,235
;   temperatureStabilizeAtStartup,1,0
;   temperatureHeatedBed,1,0
;   fanLayers,1
;   fanSpeeds,0
;   blipFanToFullPower,1
;   adjustSpeedForCooling,1
;   minSpeedLayerTime,10
;   minCoolingSpeedSlowdown,20
;   increaseFanForCooling,1
;   minFanLayerTime,8
;   maxCoolingFanSpeed,100
;   increaseFanForBridging,1
;   bridgingFanSpeed,100
;   use5D,1
;   relativeEdistances,0
;   allowEaxisZeroing,1
;   independentExtruderAxes,0
;   includeM10123,0
;   stickySupport,1
;   applyToolheadOffsets,0
;   gcodeXoffset,0
;   gcodeYoffset,0
;   gcodeZoffset,0
;   overrideMachineDefinition,1
;   machineTypeOverride,0
;   strokeXoverride,270
;   strokeYoverride,270
;   strokeZoverride,320
;   originOffsetXoverride,0
;   originOffsetYoverride,0
;   originOffsetZoverride,0
;   homeXdirOverride,-1
;   homeYdirOverride,-1
;   homeZdirOverride,-1
;   flipXoverride,1
;   flipYoverride,-1
;   flipZoverride,1
;   toolheadOffsets,0,0|0,0|0,0|0,0|0,0|0,0
;   overrideFirmwareConfiguration,0
;   firmwareTypeOverride,RepRap (Marlin/Repetier/Sprinter)
;   GPXconfigOverride,r2
;   baudRateOverride,115200
;   overridePrinterModels,0
;   printerModelsOverride
;   startingGcode,M82,M190 S[bed0_temperature] T0,M104 S[extruder0_temperature] T0,,G28 ,,G90,G1 Z5 F6000,G1 X120 Y-16,G1 Z-1,G92 E0,,M109 S[extruder0_temperature] T0,,G1 E50 F3600,G92 E0,G1 E10 F130,,G92 E0,G1 E-2 F3600,G1 X172 F1800,G1 Z5 F12000,G1 Y0,,M120 P20 S50
;   layerChangeGcode,
;   retractionGcode,
;   toolChangeGcode,
;   endingGcode,M106 S0 ; Turn off fan,M104 S0,M140 S0,G1 X0 Y270 F4000,G92 E0,G1 E-30 F3600,M84,M120 P20 S100
;   exportFileFormat,gcode
;   celebration,0
;   celebrationSong,Star Wars
;   postProcessing,|;{REPLACE "; layer 2," "M600\n; layer 2,"}
;   defaultSpeed,4200
;   outlineUnderspeed,0.45
;   solidInfillUnderspeed,0.6
;   supportUnderspeed,0.6
;   rapidXYspeed,6000
;   rapidZspeed,1002
;   minBridgingArea,50
;   bridgingExtraInflation,0
;   bridgingExtrusionMultiplier,1
;   bridgingSpeedMultiplier,1
;   useFixedBridgingAngle,0
;   fixedBridgingAngle,0
;   applyBridgingToPerimeters,0
;   filamentDiameters,1.75|1.75|1.75|1.75|1.75|1.75
;   filamentPricesPerKg,120|120|120|120|120|120
;   filamentDensities,1.04|1.04|1.04|1.04|1.04|1.04
;   useMinPrintHeight,0
;   minPrintHeight,0
;   useMaxPrintHeight,0
;   maxPrintHeight,0
;   useDiaphragm,0
;   diaphragmLayerInterval,20
;   robustSlicing,1
;   mergeAllIntoSolid,0
;   onlyRetractWhenCrossingOutline,1
;   retractBetweenLayers,0
;   useRetractionMinTravel,1
;   retractionMinTravel,3
;   retractWhileWiping,1
;   onlyWipeOutlines,1
;   avoidCrossingOutline,0
;   maxMovementDetourFactor,3
;   toolChangeRetractionDistance,12
;   toolChangeExtraRestartDistance,-0.5
;   toolChangeRetractionSpeed,600
;   externalThinWallType,1
;   internalThinWallType,1
;   thinWallAllowedOverlapPercentage,30
;   singleExtrusionMinLength,1
;   singleExtrusionMinPrintingWidthPercentage,50
;   singleExtrusionMaxPrintingWidthPercentage,200
;   singleExtrusionEndpointExtension,0.2
;   horizontalSizeCompensation,0
G90
M82
M106 S0
M82
M190 S110 T0
M104 S235 T0
G28 
G90
G1 Z5 F6000
G1 X120 Y-16
G1 Z-1
G92 E0
M109 S235 T0
G1 E50 F3600
G92 E0
G1 E10 F130
G92 E0
G1 E-2 F3600
G1 X172 F1800
G1 Z5 F12000
G1 Y0
M120 P20 S50
; process Process1
; layer 1, Z = 0.300
T0
G92 E0.0000
G1 E-1.5000 F2400
; feature skirt
; tool H0.300 W0.480
G1 Z0.500 F1002
G1 X45.071 Y66.081 F6000
G1 Z0.300 F1002
G1 E0.0000 F2400
G92 E0.0000
G1 X46.361 Y65.244 E0.0920 F2520
G1 X48.130 Y64.519 E0.2065
G1 X50.433 Y64.045 E0.3473
G1 X52.885 Y64.132 E0.4942
G1 X55.005 Y64.729 E0.6260
G1 X56.518 Y65.435 E0.7260
G1 X57.767 Y66.289 E0.8165
G1 X58.599 Y66.999 E0.8821
G1 X106.670 Y117.816 E5.0699
G1 X215.494 Y14.874 E14.0382
G1 X216.107 Y14.378 E14.0853
G1 X217.325 Y13.538 E14.1739
G1 X219.146 Y12.745 E14.2928
G1 X221.559 Y12.213 E14.4408
G1 X224.122 Y12.295 E14.5943
G1 X226.266 Y12.914 E14.7279
G1 X227.744 Y13.611 E14.8257
G1 X228.978 Y14.454 E14.9152
G1 X229.810 Y15.165 E14.9807
G1 X257.363 Y44.292 E17.3811
G1 X258.027 Y45.163 E17.4467
G1 X258.800 Y46.442 E17.5361
G1 X259.413 Y47.956 E17.6339
G1 X259.896 Y50.060 E17.7631
G1 X259.873 Y52.477 E17.9079
G1 X259.299 Y54.782 E18.0501
G1 X258.457 Y56.580 E18.1690
G1 X257.529 Y57.851 E18.2632
G1 X256.912 Y58.552 E18.3191
G1 X148.034 Y161.544 E27.2917
G1 X196.104 Y212.362 E31.4795
G1 X196.768 Y213.233 E31.5451
G1 X197.550 Y214.527 E31.6356
G1 X198.172 Y216.076 E31.7356
G1 X198.649 Y218.226 E31.8674
G1 X198.600 Y220.680 E32.0144
G1 X197.999 Y222.953 E32.1551
G1 X197.176 Y224.680 E32.2697
G1 X196.269 Y225.921 E32.3617
G1 X195.652 Y226.622 E32.4176
G1 X166.640 Y254.066 E34.8085
G1 X165.906 Y254.643 E34.8644
G1 X164.616 Y255.480 E34.9564
G1 X162.847 Y256.206 E35.0709
G1 X160.544 Y256.680 E35.2117
G1 X158.090 Y256.592 E35.3587
G1 X155.971 Y255.996 E35.4905
G1 X154.458 Y255.290 E35.5905
G1 X153.209 Y254.436 E35.6810
G1 X152.376 Y253.726 E35.7465
G1 X104.306 Y202.909 E39.9344
G1 X75.283 Y230.363 E42.3262
G1 X74.413 Y231.026 E42.3917
G1 X73.118 Y231.809 E42.4822
G1 X71.567 Y232.431 E42.5823
G1 X69.418 Y232.908 E42.7141
G1 X66.966 Y232.859 E42.8609
G1 X64.692 Y232.258 E43.0017
G1 X62.965 Y231.435 E43.1163
G1 X61.723 Y230.528 E43.2083
G1 X61.023 Y229.911 E43.2642
G1 X33.578 Y200.898 E45.6552
G1 X33.001 Y200.164 E45.7111
G1 X32.164 Y198.874 E45.8031
G1 X31.438 Y197.103 E45.9177
G1 X30.965 Y194.801 E46.0585
G1 X31.052 Y192.351 E46.2052
G1 X31.647 Y190.231 E46.3370
G1 X32.354 Y188.716 E46.4371
G1 X33.208 Y187.467 E46.5277
G1 X33.919 Y186.635 E46.5932
G1 X62.942 Y159.180 E48.9850
G1 X14.671 Y108.149 E53.1904
G1 X13.746 Y106.788 E53.2890
G1 X12.805 Y104.773 E53.4221
G1 X12.320 Y102.416 E53.5661
G1 X12.400 Y99.853 E53.7197
G1 X13.062 Y97.472 E53.8676
G1 X14.149 Y95.534 E54.0007
G1 X15.101 Y94.313 E54.0933
G1 X44.336 Y66.658 E56.5026
G1 X45.071 Y66.081 E56.5585
G92 E0.0000
G1 E-1.5000 F2400
; feature inner perimeter
G1 Z0.800 F1002
G1 X51.244 Y75.871 F6000
G1 Z0.300 F1002
G1 E0.0000 F2400
G92 E0.0000
G1 X105.008 Y132.706 E4.6838 F1827
G1 X105.322 Y132.962 E4.7080
G1 X105.763 Y133.159 E4.7370
G1 X106.241 Y133.236 E4.7660
G1 X106.723 Y133.186 E4.7950
G1 X107.175 Y133.013 E4.8239
G1 X107.503 Y132.776 E4.8482
G1 X222.455 Y24.037 E14.3214
G1 X248.097 Y51.143 E16.5552
G1 X133.144 Y159.882 E26.0285
G1 X132.889 Y160.196 E26.0527
G1 X132.691 Y160.638 E26.0817
G1 X132.615 Y161.116 E26.1107
G1 X132.665 Y161.597 E26.1396
G1 X132.837 Y162.050 E26.1686
G1 X133.075 Y162.377 E26.1928
G1 X186.838 Y219.213 E30.8766
G1 X159.731 Y244.854 E33.1105
G1 X105.968 Y188.018 E37.7943
G1 X105.654 Y187.763 E37.8185
G1 X105.212 Y187.566 E37.8475
G1 X104.734 Y187.489 E37.8764
G1 X104.253 Y187.539 E37.9054
G1 X103.801 Y187.712 E37.9344
G1 X103.473 Y187.949 E37.9586
G1 X68.432 Y221.096 E40.8464
G1 X42.791 Y193.990 E43.0802
G1 X77.832 Y160.843 E45.9680
G1 X78.087 Y160.529 E45.9922
G1 X78.285 Y160.087 E46.0212
G1 X78.361 Y159.609 E46.0501
G1 X78.311 Y159.127 E46.0791
G1 X78.138 Y158.675 E46.1081
G1 X77.901 Y158.348 E46.1323
G1 X24.139 Y101.511 E50.8161
G1 X51.244 Y75.871 E53.0498
G1 X51.263 Y75.193 F6000
G92 E0.0000
G1 X105.335 Y132.354 E4.7106 F1827
G1 X105.575 Y132.549 E4.7292
G1 X105.902 Y132.695 E4.7506
G1 X106.255 Y132.752 E4.7720
G1 X106.611 Y132.715 E4.7934
G1 X106.945 Y132.587 E4.8148
G1 X107.196 Y132.405 E4.8334
G1 X222.474 Y23.358 E14.3335
G1 X248.775 Y51.162 E16.6248
G1 X133.497 Y160.209 E26.1249
G1 X133.301 Y160.450 E26.1435
G1 X133.155 Y160.776 E26.1649
G1 X133.099 Y161.129 E26.1863
G1 X133.135 Y161.485 E26.2077
G1 X133.263 Y161.819 E26.2291
G1 X133.445 Y162.070 E26.2477
G1 X187.516 Y219.231 E30.9583
G1 X159.712 Y245.532 E33.2496
G1 X105.641 Y188.371 E37.9603
G1 X105.401 Y188.176 E37.9788
G1 X105.074 Y188.030 E38.0003
G1 X104.721 Y187.973 E38.0217
G1 X104.365 Y188.010 E38.0431
G1 X104.031 Y188.138 E38.0645
G1 X103.780 Y188.319 E38.0830
G1 X68.413 Y221.775 E40.9976
G1 X42.112 Y193.971 E43.2889
G1 X77.479 Y160.516 E46.2035
G1 X77.675 Y160.275 E46.2221
G1 X77.821 Y159.949 E46.2435
G1 X77.877 Y159.595 E46.2649
G1 X77.840 Y159.240 E46.2863
G1 X77.713 Y158.906 E46.3077
G1 X77.531 Y158.655 E46.3263
G1 X23.461 Y101.492 E51.0369
G1 X51.263 Y75.193 E53.3281
; feature outer perimeter
G1 X51.282 Y74.514 F6000
G92 E0.0000
G1 X105.662 Y132.001 E4.7375 F1134
G1 X105.829 Y132.137 E4.7504
G1 X106.040 Y132.231 E4.7642
G1 X106.268 Y132.268 E4.7781
G1 X106.498 Y132.244 E4.7919
G1 X106.714 Y132.161 E4.8058
G1 X106.889 Y132.035 E4.8187
G1 X222.493 Y22.680 E14.3456
G1 X249.454 Y51.181 E16.6944
G1 X133.849 Y160.536 E26.2214
G1 X133.714 Y160.703 E26.2342
G1 X133.619 Y160.914 E26.2481
G1 X133.583 Y161.143 E26.2619
G1 X133.606 Y161.373 E26.2758
G1 X133.689 Y161.589 E26.2896
G1 X133.815 Y161.763 E26.3025
G1 X188.195 Y219.250 E31.0400
G1 X159.694 Y246.211 E33.3888
G1 X105.314 Y188.724 E38.1263
G1 X105.147 Y188.588 E38.1392
G1 X104.936 Y188.494 E38.1530
G1 X104.707 Y188.457 E38.1669
G1 X104.477 Y188.481 E38.1807
G1 X104.261 Y188.563 E38.1946
G1 X104.087 Y188.690 E38.2075
G1 X68.394 Y222.453 E41.1489
G1 X41.434 Y193.952 E43.4977
G1 X77.126 Y160.189 E46.4391
G1 X77.262 Y160.021 E46.4520
G1 X77.357 Y159.810 E46.4659
G1 X77.393 Y159.582 E46.4797
G1 X77.369 Y159.352 E46.4936
G1 X77.287 Y159.136 E46.5074
G1 X77.161 Y158.962 E46.5203
G1 X22.782 Y101.473 E51.2578
G1 X51.282 Y74.514 E53.6065
; feature inner perimeter
G1 X56.999 Y92.110 F6000
G92 E0.0000
G1 X56.181 Y92.423 E0.0524 F1827
G1 X55.472 Y92.936 E0.1048
G1 X54.920 Y93.616 E0.1573
G1 X54.562 Y94.415 E0.2097
G1 X54.424 Y95.280 E0.2621
G1 X54.514 Y96.156 E0.3148
G1 X54.840 Y96.988 E0.3683
G1 X55.340 Y97.678 E0.4193
G1 X56.020 Y98.230 E0.4717
G1 X56.819 Y98.587 E0.5242
G1 X57.683 Y98.726 E0.5766
G1 X58.554 Y98.636 E0.6290
G1 X59.372 Y98.323 E0.6814
G1 X60.082 Y97.810 E0.7338
G1 X60.634 Y97.130 E0.7863
G1 X60.991 Y96.331 E0.8387
G1 X61.129 Y95.466 E0.8911
G1 X61.039 Y94.595 E0.9435
G1 X60.725 Y93.772 E0.9962
G1 X60.195 Y93.053 E1.0497
G1 X59.534 Y92.516 E1.1008
G1 X58.734 Y92.159 E1.1532
G1 X57.870 Y92.020 E1.2056
G1 X56.999 Y92.110 E1.2580
G1 X57.111 Y92.581 F6000
G92 E0.0000
G1 X56.411 Y92.849 E0.0449 F1827
G1 X55.804 Y93.288 E0.0897
G1 X55.332 Y93.870 E0.1346
G1 X55.026 Y94.553 E0.1794
G1 X54.908 Y95.293 E0.2243
G1 X54.985 Y96.042 E0.2693
G1 X55.265 Y96.756 E0.3152
G1 X55.692 Y97.345 E0.3588
G1 X56.273 Y97.818 E0.4036
G1 X56.957 Y98.123 E0.4485
G1 X57.697 Y98.242 E0.4934
G1 X58.442 Y98.165 E0.5382
G1 X59.142 Y97.897 E0.5831
G1 X59.749 Y97.458 E0.6279
G1 X60.221 Y96.876 E0.6728
G1 X60.527 Y96.192 E0.7176
G1 X60.645 Y95.453 E0.7625
G1 X60.568 Y94.707 E0.8073
G1 X60.300 Y94.005 E0.8524
G1 X59.845 Y93.387 E0.8983
G1 X59.280 Y92.928 E0.9419
G1 X58.596 Y92.623 E0.9867
G1 X57.856 Y92.504 E1.0316
G1 X57.111 Y92.581 E1.0764
; feature outer perimeter
G1 X57.223 Y93.052 F6000
G92 E0.0000
G1 X56.642 Y93.275 E0.0373 F1134
G1 X56.137 Y93.640 E0.0746
G1 X55.744 Y94.123 E0.1119
G1 X55.490 Y94.692 E0.1491
G1 X55.392 Y95.307 E0.1864
G1 X55.456 Y95.927 E0.2238
G1 X55.690 Y96.524 E0.2621
G1 X56.043 Y97.012 E0.2983
G1 X56.527 Y97.405 E0.3355
G1 X57.095 Y97.659 E0.3728
G1 X57.710 Y97.758 E0.4101
G1 X58.330 Y97.694 E0.4474
G1 X58.912 Y97.471 E0.4847
G1 X59.416 Y97.106 E0.5220
G1 X59.809 Y96.623 E0.5593
G1 X60.063 Y96.054 E0.5966
G1 X60.161 Y95.439 E0.6338
G1 X60.097 Y94.820 E0.6711
G1 X59.875 Y94.237 E0.7085
G1 X59.495 Y93.721 E0.7468
G1 X59.026 Y93.341 E0.7830
G1 X58.458 Y93.087 E0.8202
G1 X57.843 Y92.988 E0.8575
G1 X57.223 Y93.052 E0.8948
G92 E0.0000
G1 E-1.5000 F2400
; feature inner perimeter
G1 Z0.800 F1002
G1 X45.666 Y106.797 F6000
G1 Z0.300 F1002
G1 E0.0000 F2400
G92 E0.0000
G1 X45.004 Y106.260 E0.0510 F1827
G1 X44.205 Y105.903 E0.1034
G1 X43.340 Y105.764 E0.1558
G1 X42.469 Y105.854 E0.2083
G1 X41.652 Y106.167 E0.2607
G1 X40.942 Y106.680 E0.3131
G1 X40.390 Y107.360 E0.3655
G1 X40.033 Y108.159 E0.4179
G1 X39.895 Y109.024 E0.4704
G1 X39.985 Y109.895 E0.5228
G1 X40.297 Y110.713 E0.5752
G1 X40.811 Y111.422 E0.6276
G1 X41.494 Y111.977 E0.6804
G1 X42.313 Y112.335 E0.7338
G1 X43.154 Y112.470 E0.7849
G1 X44.025 Y112.380 E0.8373
G1 X44.843 Y112.067 E0.8897
G1 X45.552 Y111.554 E0.9421
G1 X46.104 Y110.874 E0.9945
G1 X46.462 Y110.075 E1.0470
G1 X46.600 Y109.210 E1.0994
G1 X46.510 Y108.339 E1.1518
G1 X46.196 Y107.516 E1.2045
G1 X45.666 Y106.797 E1.2580
G1 X45.315 Y107.131 F6000
G92 E0.0000
G1 X44.751 Y106.672 E0.0436 F1827
G1 X44.067 Y106.366 E0.0884
G1 X43.327 Y106.248 E0.1333
G1 X42.582 Y106.325 E0.1781
G1 X41.882 Y106.593 E0.2230
G1 X41.275 Y107.032 E0.2678
G1 X40.803 Y107.614 E0.3127
G1 X40.497 Y108.297 E0.3575
G1 X40.378 Y109.037 E0.4024
G1 X40.456 Y109.782 E0.4472
G1 X40.723 Y110.482 E0.4921
G1 X41.162 Y111.089 E0.5369
G1 X41.746 Y111.564 E0.5820
G1 X42.449 Y111.871 E0.6279
G1 X43.168 Y111.986 E0.6715
G1 X43.913 Y111.909 E0.7163
G1 X44.613 Y111.641 E0.7612
G1 X45.219 Y111.202 E0.8060
